X:1641
T:Dream Waltz
O:england
M:3/4
L:1/8
Q:1/4=160
C:Cliff Stapleton
S:Swap
R:Waltz
N:Play before Vals fran Alvdale
K:G
FG|A2 F2 D2|CD EC EF|GF ED EG|F2 D2 FG|
A2 F2 D2|CD EC EF|GF EG EC|D4:|
FG|A3 d cB|G3 A Bc|B2 A3 F|GF D2 FG|
A3 d cB|G3 A Bc|B2 A<G A<d|[1A4:|[2A6||
d2 Ad Gd|FG AD FA|d2 Ad Gd|FG AD FA|
c2 Gc =Fc|E3 =F GE|c2 Gc =Fc|[1E=F GA ^FA:|[2E=F GA||


